X: 88
T: My Love Is In America
M: C|
L: 1/8
R: reel
K:Dmaj
"D"FEFG "Am(A5)"AB=cB|"D"Ad~d2 Ad~d2|FEFG "Am(A5)"AB=cB|ABAG "D"FDD2|
"D"F3 G "Am(A5)"AB=cB|"D"Addc defg|afge fdec|"G"dBAG "D"FD D2:|
|: "D"fdeg fd"(A)"ec|"D"Ad~d2 Ad~d2|fdeg fdec|ABAG FDD2|
"D"fdeg fd"(A)"ec|"D"Addc defg|afge fdec|"G"dBAG "D"FD D2:|


